src/img/icons/icon-phone.svg

<svg width="20" height="22" viewBox="0 0 20 22" fill="none" xmlns="http://www.w3.org/2000/svg">
<path fill-rule="evenodd" clip-rule="evenodd" d="M7.71256 3.98406C8.39818 4.66926 8.40046 5.7823 7.71256 6.47078L7.2984 6.88526L2.32868 1.91158L2.74296 1.4968C3.40694 0.8322 4.5652 0.83334 5.22804 1.4968L7.71256 3.98406ZM11.4953 14.4055L6.58302 9.48536C6.10408 9.00608 6.08806 8.25906 6.49296 7.73714L1.5348 2.77468C-0.59814 5.26322 -0.51484 9.0129 1.83934 11.3693L9.61308 19.1534C11.8721 21.4143 15.5726 21.7143 18.2 19.4581L13.2417 14.4954C12.7189 14.9008 11.9731 14.8846 11.4953 14.4055ZM19.4766 15.7622L16.9921 13.275C16.3293 12.6115 15.1711 12.6104 14.5071 13.275L14.0929 13.6896L19.0625 18.6634L19.4766 18.2489C20.1645 17.5603 20.1622 16.4473 19.4766 15.7622Z" fill="#FE3E57"/>
</svg>

<svg width="20" height="22" fill="none" xmlns="http://www.w3.org/2000/svg"><path fill-rule="evenodd" clip-rule="evenodd" d="M7.713 3.984a1.758 1.758 0 010 2.487l-.415.414-4.97-4.973.415-.415c.664-.665 1.822-.664 2.485 0l2.485 2.487zm3.782 10.421l-4.912-4.92c-.479-.479-.495-1.226-.09-1.748L1.535 2.775c-2.133 2.488-2.05 6.238.304 8.594l7.774 7.784a6.283 6.283 0 008.587.305l-4.958-4.963c-.523.406-1.269.39-1.747-.09zm7.982 1.357l-2.485-2.487c-.663-.664-1.82-.665-2.485 0l-.414.415 4.97 4.973.414-.414a1.758 1.758 0 000-2.487z" fill="#FE3E57"/></svg>
